X: 28077
T: Mr Porter
R: reel
M: 4/4
K: Aminor
|:EAAB(3cBA GA|EGAB cBcd|e2 ae gae2|1 decA BcAD:|2 dcBc A3D||
[A2e2] [A2a2] b2a2|(3age dg ecBc|(3AAA AB cBce|dBGA BA Bc|
[A2e2] [A2a2] b2a2|(3age dg ecBc|(3AAA AB cBce|dBGA B2 Bc|
[A2e2] [A2a2] b2a2|(3age dg ecBc|(3AAA AB cBce|dBGA B3 D|
EAAA GBBB|Accc Bddd|e2 (3efe decA|BdcB A4||

